docs/assets/img/details/btnIcons/heart.svg

<?xml version="1.0" encoding="UTF-8"?>
<svg width="18px" height="17px" viewBox="0 0 18 17" version="1.1" xmlns="http://www.w3.org/2000/svg" xmlns:xlink="http://www.w3.org/1999/xlink">
    <title>heart</title>
    <g id="Welcome" stroke="none" stroke-width="1" fill="none" fill-rule="evenodd">
        <g id="lpw-featured-development-detailed-page-1.0" transform="translate(-1238.000000, -160.000000)" fill="#018E37" fill-rule="nonzero">
            <g id="Bitmap" transform="translate(30.000000, 140.000000)">
                <g id="heart" transform="translate(1208.000000, 20.000000)">
                    <path d="M16.5118745,1.62779775 C15.581749,0.613566292 14.2784059,0.0364831461 12.9128912,0.0342377254 C11.5462845,0.0359483146 10.2415858,0.612725843 9.31002929,1.62714831 L8.99254393,1.96749213 L8.67505858,1.62714831 C6.82659414,-0.391114607 3.71530544,-0.507020225 1.72589121,1.36821348 C1.6377364,1.45134157 1.55259414,1.53767865 1.47065272,1.62714831 C-0.490217573,3.77281573 -0.490217573,7.08884719 1.47065272,9.23451461 L8.5259749,16.7825528 C8.77006695,17.0439708 9.17683682,17.055164 9.43452301,16.8075371 C9.44295816,16.7994382 9.45116736,16.7911101 9.45915063,16.7825528 L16.5119121,9.23451461 C18.4726318,7.0890764 18.4726318,3.77323596 16.5118745,1.62779775 Z M15.5819372,8.3367236 L15.5812971,8.3367236 L8.99254393,15.3866427 L2.40318828,8.3367236 C0.905196653,6.69723596 0.905196653,4.16377753 2.40318828,2.52428989 C3.76354393,1.0285191 6.0616318,0.934732584 7.53605021,2.31478876 C7.60763598,2.38179551 7.67651046,2.45166742 7.74256067,2.52428989 L8.5259749,3.36275281 C8.78415063,3.62298652 9.2009749,3.62298652 9.45915063,3.36275281 L10.2425649,2.52493933 C11.6029205,1.02916854 13.9010084,0.935382022 15.3754268,2.3154382 C15.4470126,2.38244494 15.515887,2.45231685 15.5819372,2.52493933 C17.0929582,4.16702472 17.1040293,6.70510562 15.5819372,8.3367236 Z" id="Shape"></path>
                </g>
            </g>
        </g>
    </g>
</svg>

<svg width="18" height="17" xmlns="http://www.w3.org/2000/svg"><path d="M16.512 1.628a4.894 4.894 0 00-3.6-1.594A4.9 4.9 0 009.31 1.627l-.317.34-.318-.34a4.868 4.868 0 00-7.204 0 5.654 5.654 0 000 7.608l7.055 7.548a.636.636 0 00.933 0l7.053-7.548a5.654 5.654 0 000-7.607zm-.93 6.709l-6.59 7.05-6.589-7.05a4.32 4.32 0 010-5.813 3.596 3.596 0 015.34 0l.783.839c.258.26.675.26.933 0l.784-.838a3.596 3.596 0 015.339 0c1.511 1.642 1.522 4.18 0 5.812z" fill="#018E37"/></svg>
